dist/svgs/crypto-icons/icons/fun.svg

<?xml version="1.0" encoding="UTF-8" standalone="yes"?>
<svg xmlns="http://www.w3.org/2000/svg" xmlns:xlink="http://www.w3.org/1999/xlink" width="510.66666666666663px" height="510.66666666666663px" viewBox="0 0 383 383" version="1.1">
  <g id="surface1">
    <path style=" stroke:none;fill-rule:nonzero;fill:rgb(0%,0%,0%);fill-opacity:1;" d="M 21.652344 192.039062 C 21.660156 202.53125 22.625 213 24.539062 223.3125 L 3.253906 227.296875 C 5.417969 238.925781 8.660156 250.328125 12.933594 261.355469 L 33.113281 253.488281 C 36.90625 263.261719 41.589844 272.660156 47.109375 281.566406 L 28.71875 293.023438 C 34.949219 303.066406 42.085938 312.511719 50.039062 321.242188 L 66.023438 306.605469 C 73.082031 314.351562 80.835938 321.433594 89.183594 327.761719 L 76.136719 345.078125 C 85.546875 352.210938 95.597656 358.453125 106.160156 363.730469 L 115.8125 344.300781 C 125.175781 348.972656 134.953125 352.761719 145.015625 355.621094 L 139.121094 376.527344 C 150.472656 379.746094 162.097656 381.902344 173.84375 382.96875 L 175.808594 361.355469 C 180.957031 361.824219 186.203125 362.0625 191.402344 362.0625 C 196.65625 362.0625 201.953125 361.816406 207.152344 361.339844 L 209.136719 382.953125 C 220.882812 381.875 232.507812 379.707031 243.855469 376.472656 L 237.933594 355.589844 C 247.992188 352.722656 257.761719 348.921875 267.117188 344.238281 L 276.789062 363.660156 C 287.34375 358.378906 297.386719 352.125 306.792969 344.988281 L 293.730469 327.679688 C 302.074219 321.347656 309.820312 314.257812 316.875 306.503906 L 332.875 321.132812 C 340.824219 312.390625 347.953125 302.9375 354.171875 292.890625 L 335.773438 281.449219 C 341.285156 272.535156 345.964844 263.128906 349.746094 253.351562 L 369.933594 261.191406 C 374.199219 250.160156 377.429688 238.753906 379.582031 227.125 L 358.335938 223.160156 C 360.253906 212.847656 361.222656 202.375 361.230469 191.882812 L 361.230469 191.574219 L 382.847656 191.539062 C 382.824219 179.714844 381.71875 167.921875 379.542969 156.300781 L 358.253906 160.300781 C 356.320312 149.996094 353.4375 139.898438 349.640625 130.128906 L 369.8125 122.246094 C 365.53125 111.226562 360.234375 100.625 354 90.585938 L 335.625 102.0625 C 330.089844 93.15625 323.75 84.78125 316.6875 77.039062 L 332.660156 62.386719 C 324.695312 53.664062 315.953125 45.691406 306.535156 38.574219 L 293.5 55.902344 C 285.140625 49.589844 276.21875 44.058594 266.851562 39.386719 L 276.488281 19.945312 C 265.914062 14.679688 254.878906 10.414062 243.515625 7.203125 L 237.632812 28.09375 C 227.566406 25.25 217.257812 23.34375 206.839844 22.402344 L 208.789062 0.78125 C 203.066406 0.269531 197.269531 0.0117188 191.40625 0 C 185.367188 0 179.398438 0.277344 173.5 0.832031 L 175.503906 22.445312 C 165.089844 23.414062 154.785156 25.347656 144.726562 28.21875 L 138.785156 7.34375 C 127.4375 10.589844 116.417969 14.890625 105.863281 20.1875 L 115.550781 39.597656 C 106.195312 44.296875 97.292969 49.847656 88.957031 56.183594 L 75.878906 38.886719 C 66.480469 46.027344 57.753906 54.023438 49.816406 62.765625 L 65.828125 77.382812 C 58.785156 85.140625 52.464844 93.535156 46.957031 102.453125 L 28.546875 91.03125 C 22.332031 101.085938 17.066406 111.703125 12.808594 122.738281 L 33.003906 130.5625 C 29.238281 140.339844 26.386719 150.449219 24.484375 160.757812 L 3.195312 156.820312 C 1.066406 168.386719 -0.00390625 180.121094 0 191.882812 L 0 192.054688 Z M 210.761719 326.457031 L 209.613281 318.375 C 221.640625 316.652344 233.359375 313.203125 244.40625 308.132812 L 247.796875 315.558594 C 236.035156 320.949219 223.558594 324.617188 210.753906 326.445312 Z M 327.015625 191.875 C 327.027344 204.835938 325.191406 217.734375 321.5625 230.179688 L 313.746094 227.875 C 317.160156 216.183594 318.886719 204.0625 318.875 191.878906 L 318.875 191.667969 L 327.019531 191.644531 L 327.019531 191.867188 Z M 305.386719 118.207031 C 312.410156 129.09375 317.832031 140.933594 321.492188 153.367188 L 313.683594 155.667969 C 310.242188 143.984375 305.144531 132.855469 298.546875 122.625 Z M 298.664062 260.953125 L 305.511719 265.367188 C 298.511719 276.265625 290 286.109375 280.234375 294.601562 L 274.90625 288.441406 C 284.085938 280.457031 292.085938 271.199219 298.664062 260.953125 Z M 247.582031 68.109375 C 259.347656 73.488281 270.285156 80.523438 280.0625 89.007812 L 274.734375 95.183594 C 265.542969 87.207031 255.261719 80.59375 244.203125 75.539062 Z M 227.054688 158.355469 L 246.023438 158.355469 L 270.695312 194.832031 L 270.695312 158.355469 L 290.027344 158.355469 L 290.027344 224.363281 L 270.789062 224.363281 L 246.195312 188.085938 L 246.195312 224.363281 L 227.054688 224.363281 Z M 191.40625 55.9375 C 197.800781 55.9375 204.191406 56.386719 210.523438 57.28125 L 209.386719 65.363281 C 197.347656 63.667969 185.132812 63.683594 173.101562 65.410156 L 171.941406 57.328125 C 178.386719 56.402344 184.890625 55.9375 191.40625 55.9375 Z M 152.214844 158.355469 L 172.503906 158.355469 L 172.503906 198.574219 C 172.503906 202.167969 173.515625 204.976562 175.507812 207 C 177.496094 209.019531 180.261719 210.03125 183.792969 210.03125 C 187.292969 210.03125 190.074219 209.035156 192.066406 207.042969 C 194.058594 205.054688 195.089844 202.226562 195.089844 198.574219 L 195.089844 158.355469 L 215.378906 158.355469 L 215.378906 197.636719 C 215.390625 201.394531 214.757812 205.125 213.519531 208.667969 C 212.324219 212.089844 210.367188 215.195312 207.800781 217.746094 C 205.214844 220.339844 202.496094 222.160156 199.644531 223.207031 C 195.699219 224.675781 190.957031 225.410156 185.421875 225.410156 C 181.917969 225.394531 178.417969 225.167969 174.945312 224.738281 C 171.160156 224.289062 167.996094 223.398438 165.453125 222.0625 C 162.910156 220.730469 160.585938 218.835938 158.476562 216.378906 C 156.371094 213.921875 154.902344 211.390625 154.121094 208.78125 C 152.867188 204.589844 152.207031 200.875 152.207031 197.636719 L 152.207031 158.355469 Z M 173.320312 318.386719 L 172.171875 326.46875 C 159.363281 324.648438 146.886719 320.988281 135.121094 315.601562 L 138.503906 308.175781 C 149.558594 313.238281 161.285156 316.675781 173.320312 318.386719 Z M 134.917969 68.257812 L 138.316406 75.679688 C 127.269531 80.761719 117.003906 87.402344 107.832031 95.398438 L 102.492188 89.234375 C 112.246094 80.730469 123.167969 73.664062 134.917969 68.257812 Z M 92.878906 158.355469 L 143.027344 158.355469 L 143.027344 172.554688 L 113.359375 172.554688 L 113.359375 184.066406 L 138.816406 184.066406 L 138.816406 197.308594 L 113.359375 197.308594 L 113.359375 224.363281 L 92.878906 224.363281 Z M 108 288.511719 L 102.671875 294.679688 C 92.898438 286.195312 84.378906 276.359375 77.371094 265.464844 L 84.214844 261.042969 C 90.804688 271.285156 98.8125 280.53125 108 288.511719 Z M 77.246094 118.5 L 84.097656 122.914062 C 77.523438 133.164062 72.457031 144.304688 69.046875 155.996094 L 61.222656 153.699219 C 64.851562 141.253906 70.246094 129.398438 77.238281 118.492188 Z M 63.949219 191.992188 C 63.949219 204.175781 65.6875 216.296875 69.105469 227.988281 L 61.296875 230.292969 C 57.65625 217.855469 55.808594 204.960938 55.808594 192 Z M 63.949219 191.992188 "/>
  </g>
</svg>

<svg xmlns="http://www.w3.org/2000/svg" viewBox="0 0 383 383"><path d="M21.652 192.04c.008 10.491.973 20.96 2.887 31.273l-21.285 3.984a190.928 190.928 0 009.68 34.058l20.18-7.867a170.173 170.173 0 0013.995 28.078l-18.39 11.457a192.934 192.934 0 0021.32 28.22l15.984-14.638a171.517 171.517 0 0023.16 21.157l-13.046 17.316a191.07 191.07 0 0030.023 18.652l9.653-19.43a168.683 168.683 0 0029.203 11.321l-5.895 20.906a190.392 190.392 0 0034.723 6.442l1.965-21.614a172.69 172.69 0 0015.593.707c5.254 0 10.551-.246 15.75-.722l1.985 21.613a190.034 190.034 0 0034.718-6.48l-5.921-20.883a168.173 168.173 0 0029.183-11.352l9.672 19.422a191.183 191.183 0 0030.004-18.672L293.73 327.68a171.279 171.279 0 0023.145-21.176l16 14.629a192.848 192.848 0 0021.297-28.242l-18.399-11.442a170.096 170.096 0 0013.973-28.097l20.188 7.84a190.684 190.684 0 009.648-34.067l-21.246-3.965a171.78 171.78 0 002.894-31.277v-.309l21.618-.035a193.546 193.546 0 00-3.305-35.238l-21.29 4a169.648 169.648 0 00-8.612-30.172l20.171-7.883A191.435 191.435 0 00354 90.586l-18.375 11.477a171.3 171.3 0 00-18.938-25.024l15.973-14.652a192.755 192.755 0 00-26.125-23.813L293.5 55.902a170.523 170.523 0 00-26.648-16.515l9.636-19.442a189.655 189.655 0 00-32.972-12.742l-5.883 20.89a169.325 169.325 0 00-30.793-5.69L208.79.78A199.62 199.62 0 00191.405 0c-6.039 0-12.008.277-17.906.832l2.004 21.613a169.259 169.259 0 00-30.777 5.774l-5.942-20.875a189.735 189.735 0 00-32.922 12.843l9.688 19.41a170.17 170.17 0 00-26.594 16.587L75.879 38.887a192.53 192.53 0 00-26.063 23.879l16.012 14.617a170.93 170.93 0 00-18.871 25.07l-18.41-11.422a191.227 191.227 0 00-15.738 31.707l20.195 7.825a169.71 169.71 0 00-8.52 30.195L3.195 156.82A193.327 193.327 0 000 191.883v.172zm189.11 134.417l-1.149-8.082a126.356 126.356 0 0034.793-10.242l3.39 7.426a134.558 134.558 0 01-37.042 10.886zm116.254-134.582a136.398 136.398 0 01-5.454 38.305l-7.816-2.305a127.976 127.976 0 005.129-35.996v-.211l8.145-.023v.222zm-21.63-73.668a135.364 135.364 0 0116.106 35.16l-7.808 2.301a127.374 127.374 0 00-15.137-33.043zm-6.722 142.746l6.848 4.414a136.498 136.498 0 01-25.278 29.235l-5.328-6.16a128.289 128.289 0 0023.758-27.489zM247.582 68.11a135.54 135.54 0 0132.48 20.899l-5.328 6.176a127.356 127.356 0 00-30.53-19.645zm-20.527 90.246h18.968l24.672 36.477v-36.477h19.332v66.008H270.79l-24.594-36.277v36.277h-19.14zM191.406 55.938c6.395 0 12.785.449 19.117 1.343l-1.136 8.082a128.896 128.896 0 00-36.285.047l-1.16-8.082a136.855 136.855 0 0119.464-1.39zm-39.191 102.417h20.289v40.22c0 3.593 1.012 6.402 3.004 8.425 1.988 2.02 4.754 3.031 8.285 3.031 3.5 0 6.281-.996 8.273-2.988 1.993-1.988 3.024-4.816 3.024-8.469v-40.219h20.289v39.282a33.128 33.128 0 01-1.86 11.031 23.927 23.927 0 01-5.718 9.078c-2.586 2.594-5.305 4.414-8.156 5.461-3.946 1.469-8.688 2.203-14.223 2.203a88.554 88.554 0 01-10.477-.672c-3.785-.449-6.949-1.34-9.492-2.675-2.543-1.333-4.867-3.227-6.976-5.684-2.106-2.457-3.575-4.988-4.356-7.598-1.254-4.191-1.914-7.906-1.914-11.144v-39.282zm21.105 160.032l-1.148 8.082a134.438 134.438 0 01-37.05-10.867l3.382-7.426a126.317 126.317 0 0034.816 10.21zm-38.402-250.13l3.398 7.423a127.448 127.448 0 00-30.484 19.718l-5.34-6.164a135.6 135.6 0 0132.426-20.976zm-42.04 90.098h50.15v14.2h-29.669v11.511h25.457v13.243H113.36v27.054H92.88zM108 288.512l-5.328 6.168a136.408 136.408 0 01-25.3-29.215l6.843-4.422A128.42 128.42 0 00108 288.512zM77.246 118.5l6.852 4.414a127.292 127.292 0 00-15.051 33.082l-7.824-2.297a135.52 135.52 0 0116.015-35.207zM63.95 191.992c0 12.184 1.739 24.305 5.156 35.996l-7.808 2.305A136.311 136.311 0 0155.809 192zm0 0"/></svg>
